img/e-mail.svg

<svg width="26" height="22" viewBox="0 0 26 22" fill="none" xmlns="http://www.w3.org/2000/svg">
<g filter="url(#filter0_dd)">
<path d="M19.6667 0.333252H6.33341C5.41675 0.333252 4.67508 1.08325 4.67508 1.99992L4.66675 11.9999C4.66675 12.9166 5.41675 13.6666 6.33341 13.6666H19.6667C20.5834 13.6666 21.3334 12.9166 21.3334 11.9999V1.99992C21.3334 1.08325 20.5834 0.333252 19.6667 0.333252ZM19.3334 3.87492L13.4417 7.55825C13.1751 7.72492 12.8251 7.72492 12.5584 7.55825L6.66675 3.87492C6.58319 3.82801 6.51001 3.76464 6.45166 3.68863C6.3933 3.61262 6.35097 3.52557 6.32723 3.43273C6.30349 3.33989 6.29883 3.2432 6.31355 3.14851C6.32826 3.05382 6.36203 2.9631 6.41282 2.88184C6.4636 2.80058 6.53035 2.73046 6.60902 2.67575C6.68769 2.62103 6.77664 2.58284 6.87049 2.5635C6.96435 2.54416 7.06115 2.54406 7.15504 2.56321C7.24894 2.58236 7.33797 2.62036 7.41675 2.67492L13.0001 6.16658L18.5834 2.67492C18.6622 2.62036 18.7512 2.58236 18.8451 2.56321C18.939 2.54406 19.0358 2.54416 19.1297 2.5635C19.2235 2.58284 19.3125 2.62103 19.3911 2.67575C19.4698 2.73046 19.5366 2.80058 19.5873 2.88184C19.6381 2.9631 19.6719 3.05382 19.6866 3.14851C19.7013 3.2432 19.6967 3.33989 19.6729 3.43273C19.6492 3.52557 19.6069 3.61262 19.5485 3.68863C19.4902 3.76464 19.417 3.82801 19.3334 3.87492V3.87492Z" fill="#BDBDBD"/>
<path d="M5.17508 2.00034V1.99992C5.17508 1.35613 5.69615 0.833252 6.33341 0.833252H19.6667C20.3073 0.833252 20.8334 1.35939 20.8334 1.99992V11.9999C20.8334 12.6404 20.3073 13.1666 19.6667 13.1666H6.33341C5.69295 13.1666 5.16685 12.6405 5.16675 12.0001C5.16675 12 5.16675 12 5.16675 11.9999L5.17508 2.00034ZM13.7067 7.98225L13.7068 7.98222L19.5898 4.30431C19.7275 4.22499 19.8483 4.11926 19.9451 3.99313C20.0446 3.86347 20.1169 3.71497 20.1574 3.55659C20.1978 3.39822 20.2058 3.23328 20.1807 3.07175C20.1556 2.91022 20.098 2.75546 20.0113 2.61684C19.9247 2.47822 19.8108 2.35861 19.6766 2.26527C19.5424 2.17193 19.3907 2.10679 19.2306 2.07379C19.0705 2.0408 18.9054 2.04063 18.7452 2.0733C18.5894 2.10508 18.4414 2.16731 18.3097 2.25637L13.0001 5.57686L7.69047 2.25637C7.5588 2.16731 7.41081 2.10508 7.25497 2.0733C7.0948 2.04063 6.92967 2.0408 6.76956 2.07379C6.60946 2.10679 6.45772 2.17193 6.32352 2.26527C6.18932 2.35862 6.07545 2.47822 5.98882 2.61684C5.90218 2.75546 5.84457 2.91022 5.81947 3.07175C5.79438 3.23328 5.80232 3.39822 5.84281 3.55659C5.88331 3.71497 5.95552 3.86348 6.05507 3.99313C6.15191 4.11925 6.27266 4.22499 6.41038 4.30431L12.2934 7.98222L12.2934 7.98225C12.7222 8.25025 13.2779 8.25025 13.7067 7.98225Z" stroke="black"/>
<path d="M5.17508 2.00034V1.99992C5.17508 1.35613 5.69615 0.833252 6.33341 0.833252H19.6667C20.3073 0.833252 20.8334 1.35939 20.8334 1.99992V11.9999C20.8334 12.6404 20.3073 13.1666 19.6667 13.1666H6.33341C5.69295 13.1666 5.16685 12.6405 5.16675 12.0001C5.16675 12 5.16675 12 5.16675 11.9999L5.17508 2.00034ZM13.7067 7.98225L13.7068 7.98222L19.5898 4.30431C19.7275 4.22499 19.8483 4.11926 19.9451 3.99313C20.0446 3.86347 20.1169 3.71497 20.1574 3.55659C20.1978 3.39822 20.2058 3.23328 20.1807 3.07175C20.1556 2.91022 20.098 2.75546 20.0113 2.61684C19.9247 2.47822 19.8108 2.35861 19.6766 2.26527C19.5424 2.17193 19.3907 2.10679 19.2306 2.07379C19.0705 2.0408 18.9054 2.04063 18.7452 2.0733C18.5894 2.10508 18.4414 2.16731 18.3097 2.25637L13.0001 5.57686L7.69047 2.25637C7.5588 2.16731 7.41081 2.10508 7.25497 2.0733C7.0948 2.04063 6.92967 2.0408 6.76956 2.07379C6.60946 2.10679 6.45772 2.17193 6.32352 2.26527C6.18932 2.35862 6.07545 2.47822 5.98882 2.61684C5.90218 2.75546 5.84457 2.91022 5.81947 3.07175C5.79438 3.23328 5.80232 3.39822 5.84281 3.55659C5.88331 3.71497 5.95552 3.86348 6.05507 3.99313C6.15191 4.11925 6.27266 4.22499 6.41038 4.30431L12.2934 7.98222L12.2934 7.98225C12.7222 8.25025 13.2779 8.25025 13.7067 7.98225Z" stroke="url(#paint0_linear)"/>
</g>
<defs>
<filter id="filter0_dd" x="0.666748" y="0.333252" width="24.6667" height="21.3333" filterUnits="userSpaceOnUse" color-interpolation-filters="sRGB">
<feFlood flood-opacity="0" result="BackgroundImageFix"/>
<feColorMatrix in="SourceAlpha" type="matrix" values="0 0 0 0 0 0 0 0 0 0 0 0 0 0 0 0 0 0 127 0"/>
<feOffset dy="4"/>
<feGaussianBlur stdDeviation="2"/>
<feColorMatrix type="matrix" values="0 0 0 0 0 0 0 0 0 0 0 0 0 0 0 0 0 0 0.25 0"/>
<feBlend mode="normal" in2="BackgroundImageFix" result="effect1_dropShadow"/>
<feColorMatrix in="SourceAlpha" type="matrix" values="0 0 0 0 0 0 0 0 0 0 0 0 0 0 0 0 0 0 127 0"/>
<feOffset dy="4"/>
<feGaussianBlur stdDeviation="2"/>
<feColorMatrix type="matrix" values="0 0 0 0 0 0 0 0 0 0 0 0 0 0 0 0 0 0 0.25 0"/>
<feBlend mode="normal" in2="effect1_dropShadow" result="effect2_dropShadow"/>
<feBlend mode="normal" in="SourceGraphic" in2="effect2_dropShadow" result="shape"/>
</filter>
<linearGradient id="paint0_linear" x1="13.0001" y1="0.333252" x2="13.0001" y2="13.6666" gradientUnits="userSpaceOnUse">
<stop stop-color="white"/>
<stop offset="1" stop-color="white" stop-opacity="0"/>
</linearGradient>
</defs>
</svg>

<svg width="26" height="22" fill="none" xmlns="http://www.w3.org/2000/svg"><g filter="url(#prefix__filter0_dd)"><path d="M19.667.333H6.333c-.916 0-1.658.75-1.658 1.667l-.008 10c0 .917.75 1.667 1.666 1.667h13.334c.916 0 1.666-.75 1.666-1.667V2c0-.917-.75-1.667-1.666-1.667zm-.334 3.542l-5.891 3.683a.843.843 0 01-.884 0L6.667 3.875a.708.708 0 11.75-1.2L13 6.167l5.583-3.492a.708.708 0 11.75 1.2z" fill="#BDBDBD"/><path d="M5.175 2v0c0-.644.521-1.167 1.158-1.167h13.334c.64 0 1.166.526 1.166 1.167v10c0 .64-.526 1.167-1.166 1.167H6.333c-.64 0-1.166-.527-1.166-1.167 0 0 0 0 0 0l.008-10zm8.532 5.982h0l5.883-3.678a1.208 1.208 0 10-1.28-2.048L13 5.576l-5.31-3.32a1.208 1.208 0 10-1.28 2.048l5.883 3.678h0c.43.268.985.268 1.414 0z" stroke="#000"/><path d="M5.175 2v0c0-.644.521-1.167 1.158-1.167h13.334c.64 0 1.166.526 1.166 1.167v10c0 .64-.526 1.167-1.166 1.167H6.333c-.64 0-1.166-.527-1.166-1.167 0 0 0 0 0 0l.008-10zm8.532 5.982h0l5.883-3.678a1.208 1.208 0 10-1.28-2.048L13 5.576l-5.31-3.32a1.208 1.208 0 10-1.28 2.048l5.883 3.678h0c.43.268.985.268 1.414 0z" stroke="url(#prefix__paint0_linear)"/></g><defs><linearGradient id="prefix__paint0_linear" x1="13" y1=".333" x2="13" y2="13.667" gradientUnits="userSpaceOnUse"><stop stop-color="#fff"/><stop offset="1" stop-color="#fff" stop-opacity="0"/></linearGradient><filter id="prefix__filter0_dd" x=".667" y=".333" width="24.667" height="21.333" filterUnits="userSpaceOnUse" color-interpolation-filters="sRGB"><feFlood flood-opacity="0" result="BackgroundImageFix"/><feColorMatrix in="SourceAlpha" values="0 0 0 0 0 0 0 0 0 0 0 0 0 0 0 0 0 0 127 0"/><feOffset dy="4"/><feGaussianBlur stdDeviation="2"/><feColorMatrix values="0 0 0 0 0 0 0 0 0 0 0 0 0 0 0 0 0 0 0.25 0"/><feBlend in2="BackgroundImageFix" result="effect1_dropShadow"/><feColorMatrix in="SourceAlpha" values="0 0 0 0 0 0 0 0 0 0 0 0 0 0 0 0 0 0 127 0"/><feOffset dy="4"/><feGaussianBlur stdDeviation="2"/><feColorMatrix values="0 0 0 0 0 0 0 0 0 0 0 0 0 0 0 0 0 0 0.25 0"/><feBlend in2="effect1_dropShadow" result="effect2_dropShadow"/><feBlend in="SourceGraphic" in2="effect2_dropShadow" result="shape"/></filter></defs></svg>
